z-union/img/icons/tab-icons/tab-icon-9.svg

<svg width="54" height="52" viewBox="0 0 54 52" fill="none" xmlns="http://www.w3.org/2000/svg">
<path d="M49.2423 24.7998H4.46045V26.9773H49.2423V24.7998Z" fill="#232322"/>
<path d="M27.9402 4.46094H25.7627V47.3118H27.9402V4.46094Z" fill="#232322"/>
<path d="M5.29514 4.1084H3.11768V46.9593H5.29514V4.1084Z" fill="#65A85A"/>
<path d="M50.1135 4.1084H47.936V46.9593H50.1135V4.1084Z" fill="#232322"/>
<path d="M49.2423 3.37109H4.46045V5.54855H49.2423V3.37109Z" fill="#232322"/>
<path d="M49.2423 46.7168H4.46045V48.8943H49.2423V46.7168Z" fill="#65A85A"/>
<path d="M4.46071 7.83254C6.3213 7.83254 7.82962 6.32423 7.82962 4.46364C7.82962 2.60304 6.3213 1.09473 4.46071 1.09473C2.60011 1.09473 1.0918 2.60304 1.0918 4.46364C1.0918 6.32423 2.60011 7.83254 4.46071 7.83254Z" fill="#151514"/>
<path d="M4.46045 8.91919C4.39882 8.91919 4.35774 8.91919 4.29611 8.91919C3.10467 8.87811 1.99539 8.36455 1.19425 7.50178C0.372563 6.63901 -0.0382792 5.48866 0.00280507 4.29721C0.0849736 1.83216 2.18027 -0.0987956 4.62478 0.00391506C7.08984 0.0860836 9.0208 2.16084 8.91809 4.6259C8.87701 5.81734 8.36345 6.9266 7.50068 7.72775C6.679 8.50835 5.61081 8.91919 4.46045 8.91919ZM4.46045 2.18138C3.24846 2.18138 2.22136 3.14684 2.18027 4.37937C2.15973 4.99563 2.36515 5.57082 2.79653 6.02275C3.20738 6.47467 3.78256 6.72119 4.37828 6.74173C5.01508 6.76228 5.56972 6.55685 6.02165 6.12546C6.47358 5.69408 6.72008 5.13943 6.74062 4.54371C6.78171 3.29064 5.79569 2.22246 4.54262 2.18138C4.52207 2.18138 4.50153 2.18138 4.46045 2.18138Z" fill="#65A85A"/>
<path d="M4.46071 50.6812C6.3213 50.6812 7.82962 49.1729 7.82962 47.3123C7.82962 45.4517 6.3213 43.9434 4.46071 43.9434C2.60011 43.9434 1.0918 45.4517 1.0918 47.3123C1.0918 49.1729 2.60011 50.6812 4.46071 50.6812Z" fill="#151514"/>
<path d="M4.46045 51.7694C4.39882 51.7694 4.35774 51.7694 4.29611 51.7694C3.10467 51.7283 1.99539 51.2148 1.19425 50.352C0.372563 49.4687 -0.0382792 48.3389 0.00280507 47.1474C0.0849736 44.6824 2.20081 42.7719 4.62478 42.8541C5.81623 42.8952 6.9255 43.4087 7.72665 44.2715C8.54833 45.1548 8.95918 46.2847 8.91809 47.4761C8.87701 48.6675 8.36345 49.7768 7.50068 50.5779C6.679 51.3585 5.59027 51.7694 4.46045 51.7694ZM4.46045 45.0316C3.22792 45.0316 2.22136 45.997 2.18027 47.2296C2.13919 48.4826 3.12521 49.5508 4.37828 49.5919C5.01509 49.633 5.56972 49.407 6.02165 48.9757C6.47358 48.5648 6.72008 47.9896 6.74062 47.3939C6.76117 46.7982 6.55575 46.2025 6.12436 45.7505C5.71352 45.2986 5.13834 45.0521 4.54262 45.0316C4.52207 45.0316 4.50153 45.0316 4.46045 45.0316Z" fill="#65A85A"/>
<path d="M27.0642 50.7017C28.9248 50.7017 30.4331 49.1934 30.4331 47.3328C30.4331 45.4722 28.9248 43.9639 27.0642 43.9639C25.2036 43.9639 23.6953 45.4722 23.6953 47.3328C23.6953 49.1934 25.2036 50.7017 27.0642 50.7017Z" fill="#151514"/>
<path d="M27.0645 51.7893C27.0028 51.7893 26.9617 51.7893 26.9001 51.7893C25.7087 51.7482 24.5994 51.2347 23.7983 50.3719C22.9766 49.5091 22.5657 48.3588 22.6068 47.1673C22.689 44.7023 24.8048 42.7713 27.2288 42.874C28.4202 42.9151 29.5295 43.4287 30.3307 44.2914C31.1523 45.1748 31.5632 46.3046 31.5221 47.496C31.4194 49.8994 29.4473 51.7893 27.0645 51.7893ZM27.0645 45.0515C25.8525 45.0515 24.8254 46.017 24.7843 47.2495C24.7637 47.8657 24.9692 48.4409 25.4005 48.8929C25.8114 49.3448 26.3866 49.5913 26.9823 49.6119C28.2354 49.6529 29.3035 48.6669 29.3446 47.4138C29.3857 46.1608 28.3997 45.0926 27.1466 45.0515C27.1055 45.0515 27.085 45.0515 27.0645 45.0515Z" fill="#65A85A"/>
<path d="M27.0642 29.2652C28.9248 29.2652 30.4331 27.7568 30.4331 25.8963C30.4331 24.0357 28.9248 22.5273 27.0642 22.5273C25.2036 22.5273 23.6953 24.0357 23.6953 25.8963C23.6953 27.7568 25.2036 29.2652 27.0642 29.2652Z" fill="#151514"/>
<path d="M27.0645 30.3538C27.0028 30.3538 26.9617 30.3538 26.9001 30.3538C25.7087 30.3127 24.5994 29.7991 23.7983 28.9364C22.9766 28.0736 22.5657 26.9232 22.6068 25.7318C22.689 23.2667 24.8048 21.3358 27.2288 21.4385C28.4202 21.4796 29.5295 21.9931 30.3307 22.8559C31.1523 23.7392 31.5632 24.869 31.5221 26.0605C31.4194 28.4639 29.4473 30.3538 27.0645 30.3538ZM27.0645 23.6159C25.8525 23.6159 24.8254 24.5814 24.7843 25.8139C24.7637 26.4302 24.9692 27.0054 25.4005 27.4573C25.8114 27.9092 26.3866 28.1558 26.9823 28.1763C28.2354 28.2174 29.3035 27.2313 29.3446 25.9783C29.3857 24.7252 28.3997 23.657 27.1466 23.6159C27.1055 23.6159 27.085 23.6159 27.0645 23.6159Z" fill="#232322"/>
<path d="M27.0642 7.83254C28.9248 7.83254 30.4331 6.32423 30.4331 4.46364C30.4331 2.60304 28.9248 1.09473 27.0642 1.09473C25.2036 1.09473 23.6953 2.60304 23.6953 4.46364C23.6953 6.32423 25.2036 7.83254 27.0642 7.83254Z" fill="#151514"/>
<path d="M27.0645 8.91919C27.0028 8.91919 26.9617 8.91919 26.9001 8.91919C25.7087 8.87811 24.5994 8.36455 23.7983 7.50178C22.9766 6.63901 22.5657 5.48866 22.6068 4.29721C22.689 1.83216 24.8048 -0.0987956 27.2288 0.00391506C28.4202 0.0449993 29.5295 0.558558 30.3307 1.42133C31.1523 2.30464 31.5632 3.43445 31.5221 4.6259C31.4194 7.02933 29.4473 8.91919 27.0645 8.91919ZM27.0645 2.18138C25.8525 2.18138 24.8254 3.14684 24.7843 4.37937C24.7637 4.99563 24.9692 5.57082 25.4005 6.02275C25.8114 6.47467 26.3866 6.72119 26.9823 6.74173C28.2354 6.78282 29.3035 5.79678 29.3446 4.54371C29.3857 3.29064 28.3997 2.22246 27.1466 2.18138C27.1055 2.18138 27.085 2.18138 27.0645 2.18138Z" fill="#232322"/>
<path d="M49.2786 7.83254C51.1392 7.83254 52.6475 6.32423 52.6475 4.46364C52.6475 2.60304 51.1392 1.09473 49.2786 1.09473C47.418 1.09473 45.9097 2.60304 45.9097 4.46364C45.9097 6.32423 47.418 7.83254 49.2786 7.83254Z" fill="#151514"/>
<path d="M49.2788 8.91919C49.2172 8.91919 49.1761 8.91919 49.1145 8.91919C47.923 8.87811 46.8138 8.36455 46.0126 7.50178C45.1909 6.63901 44.7801 5.48866 44.8212 4.29721C44.9033 1.83216 47.0192 -0.0987956 49.4431 0.00391506C50.6346 0.0449993 51.7439 0.558558 52.545 1.42133C53.3667 2.30464 53.7775 3.43445 53.7365 4.6259C53.6337 7.02933 51.6617 8.91919 49.2788 8.91919ZM49.2788 2.18138C48.0668 2.18138 47.0397 3.14684 46.9986 4.37937C46.9781 4.99563 47.1835 5.57082 47.6149 6.02275C48.0257 6.47467 48.6009 6.72119 49.1966 6.74173C50.4497 6.78282 51.5179 5.79678 51.559 4.54371C51.6001 3.29064 50.614 2.22246 49.361 2.18138C49.3199 2.18138 49.2993 2.18138 49.2788 2.18138Z" fill="#232322"/>
<path d="M49.2786 29.2652C51.1392 29.2652 52.6475 27.7568 52.6475 25.8963C52.6475 24.0357 51.1392 22.5273 49.2786 22.5273C47.418 22.5273 45.9097 24.0357 45.9097 25.8963C45.9097 27.7568 47.418 29.2652 49.2786 29.2652Z" fill="#151514"/>
<path d="M49.2788 30.3538C49.2172 30.3538 49.1761 30.3538 49.1145 30.3538C47.923 30.3127 46.8138 29.7991 46.0126 28.9364C45.1909 28.0736 44.7801 26.9232 44.8212 25.7318C44.9033 23.2667 47.0192 21.3358 49.4431 21.4385C50.6346 21.4796 51.7439 21.9931 52.545 22.8559C53.3667 23.7392 53.7775 24.869 53.7365 26.0605C53.6337 28.4639 51.6617 30.3538 49.2788 30.3538ZM49.2788 23.6159C48.0668 23.6159 47.0397 24.5814 46.9986 25.8139C46.9781 26.4302 47.1835 27.0054 47.6149 27.4573C48.0257 27.9092 48.6009 28.1558 49.1966 28.1763C50.4497 28.2174 51.5179 27.2313 51.559 25.9783C51.6001 24.7252 50.614 23.657 49.361 23.6159C49.3199 23.6159 49.2993 23.6159 49.2788 23.6159Z" fill="#232322"/>
<path d="M4.46071 29.2652C6.3213 29.2652 7.82962 27.7568 7.82962 25.8963C7.82962 24.0357 6.3213 22.5273 4.46071 22.5273C2.60011 22.5273 1.0918 24.0357 1.0918 25.8963C1.0918 27.7568 2.60011 29.2652 4.46071 29.2652Z" fill="#151514"/>
<path d="M4.46045 30.3538C4.39882 30.3538 4.35774 30.3538 4.29611 30.3538C3.10467 30.3127 1.99539 29.7991 1.19425 28.9364C0.372563 28.0736 -0.0382792 26.9232 0.00280507 25.7318C0.0849736 23.2667 2.20081 21.3358 4.62478 21.4385C5.81623 21.4796 6.9255 21.9931 7.72665 22.8559C8.54833 23.7392 8.95918 24.869 8.91809 26.0605C8.81538 28.4639 6.84334 30.3538 4.46045 30.3538ZM4.46045 23.6159C3.24846 23.6159 2.22136 24.5814 2.18027 25.8139C2.15973 26.4302 2.36515 27.0054 2.79654 27.4573C3.20738 27.9092 3.78256 28.1558 4.37828 28.1763C5.63135 28.2174 6.69954 27.2313 6.74063 25.9783C6.78171 24.7252 5.79569 23.657 4.54262 23.6159C4.50153 23.6159 4.48099 23.6159 4.46045 23.6159Z" fill="#65A85A"/>
<path d="M49.263 50.6812C51.1235 50.6812 52.6319 49.1729 52.6319 47.3123C52.6319 45.4517 51.1235 43.9434 49.263 43.9434C47.4024 43.9434 45.894 45.4517 45.894 47.3123C45.894 49.1729 47.4024 50.6812 49.263 50.6812Z" fill="#151514"/>
<path d="M49.2628 51.7696C49.2012 51.7696 49.1601 51.7696 49.0985 51.7696C46.6334 51.6875 44.7025 49.6127 44.8052 47.1477C44.8463 45.9562 45.3598 44.847 46.2226 44.0458C47.1059 43.2241 48.2563 42.8133 49.4272 42.8544C50.6186 42.8955 51.7279 43.409 52.529 44.2717C53.3507 45.1551 53.7616 46.2849 53.7205 47.4763C53.6178 49.8798 51.6457 51.7696 49.2628 51.7696ZM49.2423 45.0318C48.6671 45.0318 48.1125 45.2373 47.6811 45.6481C47.2292 46.0589 46.9827 46.6341 46.9621 47.2298C46.921 48.4829 47.907 49.5511 49.1601 49.5922C50.4543 49.6333 51.4814 48.6472 51.5225 47.3942C51.543 46.7779 51.3376 46.2027 50.9062 45.7508C50.4954 45.2989 49.9202 45.0524 49.3245 45.0318C49.3039 45.0318 49.2834 45.0318 49.2423 45.0318Z" fill="#65A85A"/>
</svg>

<svg width="54" height="52" fill="none" xmlns="http://www.w3.org/2000/svg"><path d="M49.242 24.8H4.46v2.177h44.782V24.8z" fill="#232322"/><path d="M27.94 4.46h-2.177v42.852h2.177V4.46z" fill="#232322"/><path d="M5.295 4.108H3.118V46.96h2.177V4.11z" fill="#65A85A"/><path d="M50.114 4.108h-2.178V46.96h2.178V4.11z" fill="#232322"/><path d="M49.242 3.371H4.46V5.55h44.782V3.37z" fill="#232322"/><path d="M49.242 46.717H4.46v2.177h44.782v-2.177z" fill="#65A85A"/><path d="M4.46 7.833a3.369 3.369 0 100-6.738 3.369 3.369 0 000 6.738z" fill="#151514"/><path d="M4.46 8.92h-.164a4.433 4.433 0 01-3.102-1.418C.373 6.639-.038 5.489.003 4.297.085 1.832 2.18-.099 4.625.004a4.444 4.444 0 014.293 4.622 4.433 4.433 0 01-1.417 3.102c-.822.78-1.89 1.191-3.04 1.191zm0-6.739a2.286 2.286 0 00-2.28 2.198c-.02.617.185 1.192.617 1.644.41.452.986.698 1.581.719a2.195 2.195 0 001.644-.617 2.27 2.27 0 00.719-1.581c.04-1.253-.945-2.322-2.198-2.363H4.46z" fill="#65A85A"/><path d="M4.46 50.681a3.369 3.369 0 100-6.738 3.369 3.369 0 000 6.738z" fill="#151514"/><path d="M4.46 51.77h-.164a4.433 4.433 0 01-3.102-1.418 4.425 4.425 0 01-1.191-3.205c.082-2.465 2.198-4.375 4.622-4.293 1.191.041 2.3.555 3.102 1.418a4.425 4.425 0 011.191 3.204 4.433 4.433 0 01-1.417 3.102 4.393 4.393 0 01-3.04 1.191zm0-6.738a2.272 2.272 0 00-2.28 2.198c-.04 1.253.945 2.32 2.198 2.362.637.041 1.192-.185 1.644-.616.452-.411.698-.986.719-1.582a2.257 2.257 0 00-.617-1.643 2.232 2.232 0 00-1.581-.72H4.46z" fill="#65A85A"/><path d="M27.064 50.702a3.369 3.369 0 100-6.738 3.369 3.369 0 000 6.738z" fill="#151514"/><path d="M27.064 51.79H26.9a4.433 4.433 0 01-3.102-1.418c-.821-.863-1.232-2.013-1.191-3.205.082-2.465 2.198-4.396 4.622-4.293 1.191.041 2.3.555 3.102 1.417a4.426 4.426 0 011.191 3.205c-.103 2.403-2.075 4.293-4.457 4.293zm0-6.739a2.286 2.286 0 00-2.28 2.198c-.02.617.185 1.192.617 1.644.41.452.986.698 1.581.719 1.253.04 2.322-.945 2.363-2.198.04-1.253-.945-2.321-2.198-2.363h-.082z" fill="#65A85A"/><path d="M27.064 29.265a3.369 3.369 0 100-6.738 3.369 3.369 0 000 6.738z" fill="#151514"/><path d="M27.064 30.354H26.9a4.433 4.433 0 01-3.102-1.418c-.821-.862-1.232-2.013-1.191-3.204.082-2.465 2.198-4.396 4.622-4.293a4.43 4.43 0 013.102 1.417 4.425 4.425 0 011.191 3.204c-.103 2.404-2.075 4.294-4.457 4.294zm0-6.738a2.285 2.285 0 00-2.28 2.198c-.02.616.185 1.191.617 1.643.41.452.986.699 1.581.72 1.253.04 2.322-.946 2.363-2.199.04-1.253-.945-2.321-2.198-2.362h-.082z" fill="#232322"/><path d="M27.064 7.833a3.369 3.369 0 100-6.738 3.369 3.369 0 000 6.738z" fill="#151514"/><path d="M27.064 8.92H26.9a4.433 4.433 0 01-3.102-1.418c-.821-.863-1.232-2.013-1.191-3.205.082-2.465 2.198-4.396 4.622-4.293 1.191.041 2.3.555 3.102 1.417a4.425 4.425 0 011.191 3.205c-.103 2.403-2.075 4.293-4.457 4.293zm0-6.739a2.286 2.286 0 00-2.28 2.198c-.02.617.185 1.192.617 1.644.41.452.986.698 1.581.719 1.253.04 2.322-.945 2.363-2.198.04-1.253-.945-2.322-2.198-2.363h-.082z" fill="#232322"/><path d="M49.279 7.833a3.369 3.369 0 100-6.738 3.369 3.369 0 000 6.738z" fill="#151514"/><path d="M49.279 8.92h-.165a4.433 4.433 0 01-3.101-1.418c-.822-.863-1.233-2.013-1.192-3.205.082-2.465 2.198-4.396 4.622-4.293 1.192.041 2.3.555 3.102 1.417a4.425 4.425 0 011.191 3.205c-.102 2.403-2.074 4.293-4.457 4.293zm0-6.739c-1.212 0-2.24.966-2.28 2.198-.02.617.184 1.192.616 1.644.41.452.986.698 1.582.719 1.253.04 2.32-.945 2.362-2.198.041-1.253-.945-2.322-2.198-2.363h-.082z" fill="#232322"/><path d="M49.279 29.265a3.369 3.369 0 100-6.738 3.369 3.369 0 000 6.738z" fill="#151514"/><path d="M49.279 30.354h-.165a4.433 4.433 0 01-3.101-1.418c-.822-.862-1.233-2.013-1.192-3.204.082-2.465 2.198-4.396 4.622-4.293 1.192.04 2.3.554 3.102 1.417a4.425 4.425 0 011.191 3.204c-.102 2.404-2.074 4.294-4.457 4.294zm0-6.738c-1.212 0-2.24.965-2.28 2.198-.02.616.184 1.191.616 1.643.41.452.986.699 1.582.72a2.292 2.292 0 002.362-2.199c.041-1.253-.945-2.321-2.198-2.362h-.082z" fill="#232322"/><path d="M4.46 29.265a3.369 3.369 0 100-6.738 3.369 3.369 0 000 6.738z" fill="#151514"/><path d="M4.46 30.354h-.164a4.433 4.433 0 01-3.102-1.418c-.821-.862-1.232-2.013-1.191-3.204.082-2.465 2.198-4.396 4.622-4.293a4.43 4.43 0 013.102 1.417 4.425 4.425 0 011.191 3.204c-.103 2.404-2.075 4.294-4.458 4.294zm0-6.738a2.285 2.285 0 00-2.28 2.198c-.02.616.185 1.191.617 1.643.41.452.986.699 1.581.72 1.253.04 2.322-.946 2.363-2.199.04-1.253-.945-2.321-2.198-2.362H4.46z" fill="#65A85A"/><path d="M49.263 50.681a3.369 3.369 0 100-6.738 3.369 3.369 0 000 6.738z" fill="#151514"/><path d="M49.263 51.77h-.164a4.443 4.443 0 01-4.294-4.622 4.457 4.457 0 014.622-4.293c1.192.04 2.3.554 3.102 1.417a4.425 4.425 0 011.191 3.204c-.102 2.404-2.074 4.294-4.457 4.294zm-.02-6.738a2.24 2.24 0 00-1.562.616c-.452.41-.698.986-.719 1.582-.041 1.253.945 2.321 2.198 2.362a2.265 2.265 0 002.363-2.198 2.226 2.226 0 00-.617-1.643 2.233 2.233 0 00-1.581-.72h-.083z" fill="#65A85A"/></svg>
